P3
32 32
255
213 160 50 224 168 52 230 173 54 230 173 54
223 168 52 212 159 49 200 150 47 191 143 44
188 141 44 191 143 45 200 150 46 210 157 49
217 163 50 219 164 51 215 161 50 205 154 48
194 145 45 185 139 43 182 136 42 185 139 43
195 146 45 207 155 48 218 164 51 224 168 52
224 168 52 218 163 51 208 156 48 199 149 46
194 146 45 195 147 45 203 152 47 213 160 50
218 164 51 228 171 53 231 173 54 228 171 53
219 164 51 207 155 48 196 147 46 189 142 44
189 142 44 195 147 45 205 154 48 214 161 50
219 164 51 218 164 51 211 158 49 200 150 47
189 142 44 183 137 43 182 137 42 189 142 44
200 150 47 212 159 49 221 166 52 225 168 52
221 166 51 213 160 50 203 152 47 196 147 46
194 145 45 198 148 46 207 155 48 218 164 51
223 167 52 230 172 54 230 173 54 224 168 52
214 160 50 202 151 47 192 144 45 189 142 44
192 144 45 200 150 47 210 158 49 218 163 51
220 165 51 216 162 50 207 155 48 195 146 45
186 139 43 182 136 42 185 139 43 194 145 45
206 154 48 217 162 50 223 167 52 223 167 52
217 163 51 208 156 48 198 149 46 193 145 45
194 146 45 201 151 47 212 159 49 223 167 52
226 170 53 231 173 54 228 171 53 220 165 51
208 156 48 197 148 46 190 143 44 190 143 44
196 147 46 206 154 48 215 161 50 221 165 51
220 165 51 213 160 50 202 152 47 191 143 44
184 138 43 183 137 43 189 141 44 199 149 46
211 158 49 220 165 51 224 168 52 220 165 51
212 159 49 202 152 47 194 146 45 192 144 45
196 147 46 205 154 48 217 162 50 226 170 53
228 171 53 229 172 53 224 168 52 214 160 50
202 152 47 193 145 45 190 142 44 193 145 45
201 151 47 211 158 49 219 164 51 222 167 52
218 164 51 209 157 49 198 148 46 188 141 44
183 137 43 185 139 43 194 145 45 205 154 48
216 162 50 222 167 52 223 167 52 217 162 50
207 155 48 197 148 46 191 144 45 192 144 45
199 149 46 209 157 49 221 165 51 228 171 53
229 171 53 227 170 53 219 164 51 208 156 48
197 148 46 190 143 44 190 143 44 196 147 46
206 155 48 216 162 50 222 167 52 222 167 52
216 162 50 205 154 48 194 145 45 186 140 43
184 138 43 190 142 44 200 150 46 211 158 49
220 165 51 223 168 52 220 165 51 212 159 49
201 151 47 193 145 45 190 142 44 193 145 45
202 152 47 214 160 50 224 168 52 229 171 53
227 170 53 223 167 52 213 160 50 201 151 47
193 144 45 189 142 44 192 144 45 201 151 47
212 159 49 220 165 51 224 168 52 221 166 51
212 159 49 201 151 47 191 143 44 186 139 43
187 140 44 195 146 45 206 154 48 216 162 50
223 167 52 223 167 52 217 163 50 207 155 48
197 147 46 190 143 44 190 142 44 196 147 46
206 155 48 217 163 51 225 169 52 227 170 53
225 168 52 217 163 51 206 155 48 196 147 46
189 142 44 189 142 44 196 147 46 206 154 48
216 162 50 223 168 52 224 168 52 218 164 51
208 156 48 197 148 46 189 142 44 187 140 44
191 144 45 201 151 47 212 159 49 221 166 51
224 168 52 221 166 51 212 159 49 202 151 47
192 144 45 188 141 44 191 143 44 199 149 46
210 158 49 220 165 51 226 169 53 225 168 52
220 165 51 211 158 49 200 150 47 191 143 44
188 141 44 191 143 44 200 150 46 211 158 49
220 165 51 225 169 52 223 167 52 215 161 50
204 153 48 194 146 45 189 142 44 190 142 44
197 148 46 208 156 48 218 163 51 224 168 52
224 168 52 218 164 51 208 156 48 197 148 46
189 142 44 188 141 44 193 145 45 203 152 47
214 161 50 222 167 52 225 168 52 220 165 51
215 161 50 204 153 48 194 145 45 188 141 44
187 141 44 194 145 45 204 153 48 216 162 50
223 168 52 225 169 52 220 165 51 211 158 49
200 150 47 192 144 45 190 142 44 194 145 45
203 152 47 214 161 50 223 167 52 226 170 53
223 167 52 214 161 50 203 152 47 193 145 45
188 141 44 189 142 44 197 148 46 208 156 48
217 163 51 223 167 52 222 167 52 215 161 50
209 157 49 198 148 46 189 142 44 185 139 43
189 141 44 198 148 46 209 157 49 219 165 51
225 169 52 224 168 52 217 163 50 206 155 48
197 148 46 191 143 45 192 144 45 199 149 46
210 157 49 220 165 51 227 170 53 227 170 53
220 165 51 210 157 49 198 149 46 190 142 44
188 141 44 192 144 45 201 151 47 212 159 49
220 165 51 222 167 52 218 164 51 209 157 49
203 152 47 192 144 45 185 139 43 185 139 43
191 143 44 202 151 47 214 160 50 222 167 52
225 169 52 221 166 51 212 159 49 202 152 47
194 146 45 192 144 45 196 147 46 205 154 48
216 162 50 225 169 52 229 172 53 226 169 53
217 163 50 205 154 48 194 146 45 188 141 44
189 142 44 196 147 46 206 154 48 215 162 50
221 166 51 220 165 51 213 160 50 203 152 47
196 147 46 187 140 44 183 137 43 186 140 43
195 146 45 207 155 48 218 163 51 224 168 52
224 168 52 217 163 51 208 156 48 198 149 46
193 145 45 193 145 45 200 150 47 211 158 49
222 166 52 229 171 53 229 172 53 223 167 52
212 159 49 200 150 47 191 144 45 188 141 44
192 144 45 200 150 47 210 158 49 218 164 51
221 166 51 217 163 50 208 156 48 196 147 46
191 143 44 184 138 43 183 137 43 189 141 44
199 149 46 211 158 49 221 165 51 224 168 52
221 166 51 213 160 50 203 152 47 195 146 45
193 144 45 196 147 46 206 154 48 217 163 51
226 170 53 231 173 54 228 171 53 219 165 51
208 156 48 197 147 46 190 142 44 190 142 44
196 147 46 205 154 48 214 161 50 220 165 51
219 164 51 212 159 49 202 151 47 191 143 44
186 140 43 182 136 42 184 138 43 192 144 45
204 153 48 215 162 50 222 167 52 223 167 52
217 163 51 208 156 48 198 149 46 193 145 45
194 145 45 200 150 47 211 158 49 222 167 52
230 172 54 231 173 54 225 169 52 215 161 50
203 152 47 193 145 45 190 142 44 192 144 45
200 150 47 210 158 49 218 163 51 220 165 51
217 162 50 207 156 48 196 147 46 186 140 43
183 137 43 181 136 42 187 140 43 197 148 46
209 157 49 219 164 51 223 167 52 220 165 51
212 159 49 203 152 47 195 146 45 192 144 45
196 147 46 205 154 48 217 163 50 227 170 53
232 174 54 230 172 53 222 166 52 210 157 49
199 149 46 192 144 45 191 143 44 196 147 46
205 154 48 215 161 50 220 165 51 220 165 51
213 160 50 202 151 47 191 143 44 183 137 43
181 136 42 183 137 43 191 143 44 202 152 47
214 160 50 221 166 51 222 166 52 216 162 50
207 155 48 198 148 46 192 144 45 193 144 45
199 150 46 210 158 49 222 166 52 230 172 54
232 174 54 227 170 53 217 162 50 205 154 48
195 146 45 191 143 44 193 145 45 201 151 47
211 158 49 219 164 51 221 166 52 218 163 51
208 156 49 197 148 46 187 140 43 181 136 42
181 136 42 186 140 43 196 147 46 208 156 48
217 163 51 222 166 52 219 164 51 212 159 49
202 151 47 194 145 45 191 143 44 194 146 45
204 153 47 215 161 50 226 169 53 231 173 54
230 173 54 222 167 52 211 158 49 200 150 47
193 145 45 192 144 45 197 148 46 206 155 48
215 162 50 221 166 52 221 166 51 215 161 50
204 153 47 192 144 45 184 138 43 181 136 42
183 137 43 191 143 44 202 151 47 213 160 50
220 165 51 221 166 51 216 162 50 207 155 48
197 148 46 191 143 44 191 143 44 197 148 46
208 156 48 220 165 51 228 171 53 231 173 54
227 170 53 217 163 51 206 154 48 196 147 46
192 144 45 194 145 45 201 151 47 211 158 49
220 165 51 223 167 52 220 165 51 211 158 49
199 149 46 188 141 44 182 137 42 183 137 43
187 140 43 196 147 46 208 156 48 217 163 51
221 166 52 219 164 51 212 159 49 211 160 53
208 160 55 206 158 54 204 156 52 203 153 48
213 160 50 223 168 52 230 172 53 229 172 53
222 167 52 211 158 49 200 150 47 193 145 45
192 144 45 197 148 46 206 155 48 216 162 50
223 167 52 223 167 52 217 163 50 206 155 48
194 146 45 186 139 43 183 137 43 187 140 43
192 144 45 202 152 47 213 160 50 220 165 51
222 166 52 216 162 50 219 167 56 221 171 61
220 172 63 221 172 64 222 172 62 223 171 59
219 165 52 226 169 53 229 172 53 225 169 52
216 162 50 205 154 48 196 147 46 191 143 44
193 145 45 201 151 47 211 158 49 220 165 51
224 168 52 222 166 52 213 160 50 202 151 47
191 143 44 185 138 43 185 139 43 192 144 45
198 148 46 209 157 49 218 164 51 222 167 52
220 165 51 218 165 53 224 173 61 227 177 66
228 180 69 231 182 70 235 184 69 237 183 66
233 177 59 227 170 53 227 170 53 220 165 51
210 157 49 199 149 46 192 144 45 191 143 44
196 147 46 206 154 48 216 162 50 223 167 52
224 168 52 219 164 51 209 157 49 197 148 46
188 141 44 185 139 43 189 141 44 198 148 46
204 153 47 215 161 50 222 167 52 223 167 52
218 163 51 218 165 55 224 174 63 228 179 68
233 184 72 238 188 73 244 191 73 246 191 70
240 183 62 227 170 53 223 167 52 214 161 50
203 153 47 194 145 45 190 142 44 192 144 45
200 150 46 210 158 49 220 165 51 225 169 52
223 167 52 216 162 50 204 153 48 194 145 45
187 140 44 187 140 44 194 145 45 204 153 47
211 158 49 220 165 51 225 168 52 223 167 52
215 161 50 212 161 53 219 170 61 225 177 67
233 184 71 241 190 74 247 194 73 248 193 70
240 183 62 225 168 52 218 164 51 208 156 48
197 148 46 190 142 44 189 141 44 194 145 45
204 153 47 215 161 50 223 167 52 225 169 52
221 165 51 211 158 49 200 150 47 191 143 44
188 141 44 191 143 44 200 150 46 211 158 49
217 163 50 224 168 52 226 169 53 221 165 51
211 158 49 202 152 48 210 162 57 219 171 63
229 180 68 239 187 71 246 191 71 245 189 67
233 177 58 221 166 51 212 159 49 201 151 47
192 144 45 187 140 44 189 142 44 197 148 46
208 156 48 218 164 51 224 168 52 224 168 52
217 163 50 206 155 48 196 147 46 190 142 44
189 142 44 196 147 46 206 155 48 217 163 50
222 167 52 227 170 53 225 169 52 217 163 51
206 155 48 196 147 46 197 149 49 209 161 56
221 171 62 232 180 65 238 183 64 235 179 60
223 167 52 216 162 50 206 155 48 195 146 45
187 141 44 186 139 43 191 143 44 201 151 47
212 159 49 221 166 51 224 168 52 221 166 51
212 159 49 202 151 47 193 145 45 190 142 44
193 145 45 201 151 47 213 159 49 222 167 52
227 170 53 228 171 53 224 168 52 214 160 50
202 152 47 193 145 45 189 142 44 195 146 46
209 159 52 220 167 55 225 170 54 223 167 52
220 165 51 211 158 49 200 150 46 190 142 44
185 138 43 186 140 43 194 145 45 205 154 48
216 162 50 223 167 52 223 167 52 217 163 51
207 156 48 197 148 46 191 143 44 191 143 44
197 148 46 208 156 48 219 164 51 227 170 53
229 172 53 228 171 53 221 165 51 209 157 49
198 149 46 191 143 45 190 143 44 196 147 46
205 154 48 215 161 50 221 166 52 222 166 52
215 162 50 205 154 48 194 145 45 185 139 43
183 137 43 188 141 44 198 148 46 209 157 49
219 164 51 223 167 52 220 165 51 213 159 49
202 152 47 194 145 45 191 143 44 194 145 45
202 152 47 214 160 50 224 168 52 229 172 53
231 173 54 226 170 53 217 162 50 205 154 48
195 146 45 191 143 44 193 145 45 201 151 47
211 158 49 219 164 51 222 167 52 219 164 51
210 158 49 199 149 46 188 141 44 183 137 43
184 138 43 191 143 44 202 152 47 213 160 50
221 165 51 222 166 52 217 162 50 207 155 48
198 148 46 191 144 45 191 143 45 197 148 46
208 156 48 220 165 51 228 171 53 231 173 54
230 173 54 223 167 52 212 159 49 201 151 47
193 145 45 192 144 45 197 148 46 206 154 48
215 162 50 222 166 52 222 166 52 216 162 50
205 154 48 193 145 45 184 138 43 182 136 42
186 139 43 195 146 45 207 155 48 217 162 50
221 166 51 219 164 51 212 159 49 202 152 47
194 145 45 190 143 44 193 145 45 202 152 47
214 160 50 225 169 52 231 173 54 230 173 54
228 171 53 219 164 51 207 155 48 197 148 46
193 144 45 194 146 45 202 151 47 211 158 49
220 165 51 223 167 52 220 165 51 211 158 49
199 150 46 188 141 44 182 137 42 182 137 42
189 142 44 200 150 47 211 158 49 219 164 51
220 165 51 216 162 50 207 155 48 197 148 46
191 143 44 191 143 44 197 147 46 207 156 48
219 165 51 228 171 53 232 174 54 228 171 53
224 168 52 214 160 50 203 152 47 195 146 45
193 145 45 198 148 46 207 155 48 216 162 50
223 167 52 223 167 52 217 163 51 206 155 48
194 146 45 185 139 43 181 136 42 185 138 43
194 145 45 205 154 48 215 161 50 220 165 51
218 164 51 211 158 49 201 151 47 193 145 45
189 142 44 192 144 45 201 151 47 213 160 50
224 168 52 231 173 54 231 173 54 224 168 52
