P3
32 32
255
201 53 64 210 56 68 216 58 69 216 58 69
210 56 67 199 53 64 188 50 60 179 48 58
176 47 57 180 48 58 188 50 60 197 52 63
204 54 65 206 55 66 202 54 65 193 51 62
182 48 59 174 46 56 171 45 55 174 46 56
183 49 59 195 52 63 205 55 66 211 56 68
211 56 68 205 54 66 196 52 63 187 50 60
183 49 59 184 49 59 190 51 61 201 53 64
205 55 66 214 57 69 217 58 70 214 57 69
206 55 66 194 52 62 184 49 59 178 47 57
178 47 57 184 49 59 193 51 62 201 54 65
206 55 66 205 55 66 198 53 64 188 50 60
178 47 57 172 46 55 171 46 55 178 47 57
188 50 60 199 53 64 208 55 67 211 56 68
208 55 67 200 53 64 191 51 61 184 49 59
182 48 58 186 49 60 195 52 63 205 55 66
209 56 67 216 57 69 217 58 70 211 56 68
201 53 64 189 50 61 181 48 58 178 47 57
181 48 58 188 50 60 198 53 63 205 54 66
207 55 66 203 54 65 194 52 62 183 49 59
175 46 56 171 45 55 174 46 56 182 48 58
193 51 62 204 54 65 210 56 67 210 56 67
204 54 66 195 52 63 186 50 60 181 48 58
182 49 59 189 50 61 199 53 64 209 56 67
213 57 68 217 58 70 214 57 69 206 55 66
195 52 63 185 49 59 179 48 57 179 48 57
184 49 59 193 51 62 202 54 65 207 55 67
207 55 66 200 53 64 190 51 61 180 48 58
173 46 55 172 46 55 177 47 57 187 50 60
198 53 64 207 55 66 210 56 67 207 55 66
199 53 64 190 51 61 183 49 59 180 48 58
184 49 59 193 51 62 203 54 65 213 57 68
214 57 69 216 57 69 211 56 68 201 53 65
190 51 61 181 48 58 178 47 57 181 48 58
189 50 61 198 53 64 206 55 66 209 56 67
205 55 66 197 52 63 186 49 60 177 47 57
172 46 55 174 46 56 182 48 58 193 51 62
203 54 65 209 56 67 209 56 67 203 54 65
194 52 62 185 49 60 180 48 58 180 48 58
187 50 60 197 52 63 207 55 67 214 57 69
215 57 69 213 57 68 206 55 66 195 52 63
185 49 59 179 48 57 179 48 57 185 49 59
194 52 62 203 54 65 209 56 67 209 56 67
203 54 65 193 51 62 182 48 59 175 47 56
173 46 56 178 47 57 187 50 60 198 53 64
207 55 66 210 56 67 207 55 66 199 53 64
189 50 61 181 48 58 178 47 57 182 48 58
190 51 61 201 53 64 210 56 67 215 57 69
214 57 69 209 56 67 200 53 64 189 50 61
181 48 58 178 47 57 181 48 58 189 50 61
199 53 64 207 55 66 210 56 68 208 55 67
199 53 64 189 50 61 179 48 58 175 46 56
176 47 56 183 49 59 193 51 62 203 54 65
209 56 67 209 56 67 204 54 65 194 52 62
185 49 59 179 48 57 178 47 57 184 49 59
194 52 62 204 54 66 212 56 68 214 57 69
211 56 68 204 54 66 194 52 62 184 49 59
178 47 57 178 47 57 184 49 59 193 51 62
203 54 65 210 56 67 211 56 68 205 55 66
196 52 63 185 49 60 178 47 57 176 47 56
180 48 58 189 50 61 199 53 64 208 55 67
211 56 68 208 55 67 200 53 64 189 50 61
181 48 58 177 47 57 179 48 58 187 50 60
198 53 63 207 55 66 212 56 68 211 56 68
207 55 66 198 53 64 188 50 60 180 48 58
176 47 57 179 48 58 188 50 60 198 53 64
207 55 67 211 56 68 209 56 67 202 54 65
192 51 62 182 49 59 177 47 57 178 47 57
185 49 59 195 52 63 205 54 66 211 56 68
211 56 68 205 55 66 195 52 63 185 49 59
178 47 57 177 47 57 182 48 58 191 51 61
201 54 65 209 56 67 211 56 68 207 55 66
202 54 65 192 51 62 182 48 59 176 47 57
176 47 57 182 48 58 192 51 62 203 54 65
210 56 67 212 56 68 207 55 67 198 53 64
188 50 60 180 48 58 178 47 57 182 48 58
191 51 61 201 54 65 209 56 67 213 57 68
210 56 67 201 54 65 191 51 61 181 48 58
176 47 57 178 47 57 185 49 59 195 52 63
204 54 66 209 56 67 209 56 67 202 54 65
196 52 63 186 49 60 178 47 57 174 46 56
177 47 57 186 49 60 197 52 63 206 55 66
211 56 68 210 56 68 204 54 65 194 52 62
185 49 59 180 48 58 180 48 58 187 50 60
197 52 63 207 55 66 213 57 68 213 57 68
207 55 67 197 52 63 186 50 60 179 47 57
176 47 57 180 48 58 189 50 61 199 53 64
206 55 66 209 56 67 205 55 66 196 52 63
190 51 61 180 48 58 174 46 56 174 46 56
180 48 58 190 50 61 201 53 64 209 56 67
212 56 68 208 55 67 200 53 64 190 51 61
182 49 59 180 48 58 184 49 59 192 51 62
203 54 65 211 56 68 215 57 69 212 56 68
204 54 65 193 51 62 183 49 59 177 47 57
178 47 57 184 49 59 193 51 62 202 54 65
208 55 67 207 55 66 200 53 64 190 51 61
185 49 59 176 47 56 172 46 55 175 47 56
183 49 59 194 52 62 204 54 66 210 56 68
210 56 68 204 54 66 195 52 63 186 50 60
181 48 58 182 48 58 188 50 60 198 53 64
208 55 67 215 57 69 215 57 69 210 56 67
200 53 64 188 50 60 180 48 58 177 47 57
180 48 58 188 50 60 198 53 63 205 55 66
207 55 67 204 54 65 195 52 63 185 49 59
179 48 58 172 46 55 172 46 55 177 47 57
187 50 60 199 53 64 207 55 67 211 56 68
208 55 67 200 53 64 191 51 61 183 49 59
181 48 58 185 49 59 193 51 62 204 54 65
213 57 68 217 58 70 214 57 69 206 55 66
195 52 63 185 49 59 178 47 57 178 47 57
184 49 59 193 51 62 202 54 65 207 55 66
206 55 66 200 53 64 189 50 61 179 48 58
175 47 56 171 45 55 173 46 55 181 48 58
192 51 62 202 54 65 209 56 67 209 56 67
204 54 66 195 52 63 187 50 60 181 48 58
182 48 58 188 50 60 199 53 64 209 56 67
216 57 69 217 58 70 212 56 68 202 54 65
191 51 61 182 48 58 178 47 57 181 48 58
188 50 60 197 53 63 205 54 66 207 55 67
204 54 65 195 52 63 184 49 59 175 47 56
172 46 55 170 45 55 175 47 56 185 49 59
196 52 63 205 55 66 209 56 67 207 55 66
200 53 64 190 51 61 183 49 59 181 48 58
184 49 59 193 51 62 204 54 65 213 57 68
218 58 70 216 57 69 208 55 67 197 52 63
187 50 60 180 48 58 179 48 58 184 49 59
193 51 62 202 54 65 207 55 66 206 55 66
200 53 64 190 50 61 179 48 58 172 46 55
170 45 55 172 46 55 179 48 58 190 51 61
201 53 64 207 55 67 208 55 67 203 54 65
195 52 63 186 49 60 181 48 58 181 48 58
187 50 60 198 53 63 208 55 67 216 57 69
218 58 70 213 57 68 204 54 65 192 51 62
183 49 59 179 48 58 182 48 58 189 50 61
198 53 64 205 55 66 208 55 67 205 54 66
196 52 63 185 49 59 175 47 56 170 45 55
170 45 55 175 47 56 184 49 59 195 52 63
204 54 66 208 55 67 206 55 66 199 53 64
190 50 61 182 48 59 179 48 58 183 49 59
191 51 61 202 54 65 212 56 68 217 58 70
216 58 69 209 56 67 198 53 64 188 50 60
181 48 58 180 48 58 185 49 59 194 52 62
202 54 65 208 55 67 208 55 67 202 54 65
191 51 61 180 48 58 173 46 55 170 45 55
172 46 55 179 48 57 189 50 61 200 53 64
207 55 66 208 55 67 203 54 65 194 52 62
185 49 59 179 48 58 179 48 58 185 49 60
196 52 63 207 55 66 215 57 69 217 58 70
213 57 68 204 54 66 193 51 62 184 49 59
180 48 58 182 48 58 189 50 61 199 53 64
206 55 66 209 56 67 206 55 66 198 53 64
187 50 60 177 47 57 171 46 55 172 46 55
175 47 56 184 49 59 195 52 63 204 54 65
208 55 67 206 55 66 199 53 64 199 56 66
197 57 67 194 57 67 193 55 65 191 52 62
200 53 64 210 56 67 216 57 69 215 57 69
209 56 67 198 53 64 188 50 60 181 48 58
180 48 58 185 49 59 194 52 62 203 54 65
209 56 67 209 56 67 204 54 65 194 52 62
183 49 59 174 46 56 172 46 55 175 47 56
180 48 58 190 51 61 200 53 64 207 55 66
208 55 67 203 54 65 207 59 70 209 63 74
209 65 75 209 66 76 210 65 75 210 62 72
206 56 67 212 56 68 215 57 69 212 56 68
203 54 65 193 51 62 184 49 59 180 48 58
182 48 58 189 50 61 199 53 64 207 55 66
211 56 68 208 55 67 200 53 64 189 50 61
179 48 58 173 46 56 174 46 56 180 48 58
186 49 60 196 52 63 205 55 66 209 56 67
207 55 66 205 56 67 212 64 74 215 68 78
217 71 80 220 72 82 223 71 81 224 68 79
219 62 74 213 57 69 213 57 68 207 55 67
197 52 63 187 50 60 180 48 58 179 48 58
184 49 59 193 51 62 203 54 65 210 56 67
211 56 68 206 55 66 196 52 63 185 49 60
177 47 57 174 46 56 177 47 57 186 49 60
192 51 62 202 54 65 209 56 67 210 56 67
205 54 66 205 58 69 212 65 75 217 70 80
221 73 83 227 75 85 232 75 85 233 72 83
226 65 77 213 57 68 210 56 67 202 54 65
191 51 61 182 48 59 178 47 57 180 48 58
188 50 60 198 53 63 207 55 66 211 56 68
210 56 67 203 54 65 192 51 62 182 48 58
176 47 57 176 47 56 182 48 58 192 51 62
198 53 64 207 55 66 211 56 68 209 56 67
202 54 65 200 56 67 208 63 74 214 69 79
221 73 83 229 75 85 235 75 86 235 72 84
226 65 77 211 56 68 205 55 66 195 52 63
185 49 59 178 47 57 177 47 57 182 48 58
191 51 61 202 54 65 209 56 67 211 56 68
207 55 67 198 53 64 188 50 60 180 48 58
176 47 57 179 48 58 187 50 60 198 53 64
204 54 65 211 56 68 212 56 68 207 55 67
198 53 64 190 51 62 199 59 69 208 65 75
218 70 80 227 73 83 233 73 84 232 69 81
220 61 73 208 55 67 200 53 64 189 50 61
180 48 58 176 47 56 178 47 57 185 49 59
196 52 63 205 55 66 211 56 68 210 56 67
204 54 65 194 52 62 184 49 59 178 47 57
178 47 57 184 49 59 194 52 62 204 54 65
209 56 67 213 57 69 212 56 68 204 54 66
194 52 62 184 49 59 186 52 62 197 59 69
210 64 74 220 67 78 225 67 78 222 63 74
209 56 67 203 54 65 194 52 62 183 49 59
176 47 57 175 46 56 179 48 58 189 50 61
200 53 64 208 55 67 211 56 68 208 55 67
200 53 64 190 50 61 181 48 58 178 47 57
181 48 58 189 50 61 200 53 64 209 56 67
213 57 68 215 57 69 210 56 67 201 53 64
190 51 61 181 48 58 178 47 57 183 49 59
197 55 66 208 58 69 211 58 69 209 56 67
206 55 66 198 53 64 188 50 60 178 47 57
173 46 56 175 47 56 182 48 59 193 51 62
203 54 65 209 56 67 210 56 67 204 54 66
195 52 63 186 49 60 180 48 58 179 48 58
185 49 59 195 52 63 206 55 66 213 57 68
216 57 69 214 57 69 207 55 67 197 52 63
186 50 60 180 48 58 179 48 57 184 49 59
193 51 62 202 54 65 208 55 67 208 55 67
202 54 65 193 51 62 182 48 58 174 46 56
172 46 55 177 47 57 186 49 60 197 52 63
206 55 66 209 56 67 207 55 67 200 53 64
190 51 61 182 48 59 179 48 57 182 48 58
190 51 61 201 53 65 211 56 68 216 57 69
217 58 70 213 57 68 203 54 65 193 51 62
184 49 59 179 48 58 181 48 58 189 50 61
198 53 64 206 55 66 209 56 67 206 55 66
198 53 64 187 50 60 177 47 57 172 46 55
173 46 55 180 48 58 190 51 61 200 53 64
207 55 67 208 55 67 203 54 65 195 52 63
186 49 60 180 48 58 180 48 58 186 49 60
196 52 63 206 55 66 214 57 69 217 58 70
216 58 69 210 56 67 199 53 64 189 50 61
182 48 58 180 48 58 185 49 59 194 51 62
202 54 65 208 55 67 209 55 67 203 54 65
193 51 62 182 48 58 173 46 56 171 45 55
174 46 56 183 49 59 194 52 62 203 54 65
208 55 67 206 55 66 199 53 64 190 51 61
182 48 58 179 48 57 182 48 58 190 51 61
201 53 65 211 56 68 217 58 70 216 58 69
214 57 69 206 55 66 195 52 63 185 49 60
181 48 58 183 49 59 189 50 61 199 53 64
206 55 66 210 56 67 207 55 66 199 53 64
187 50 60 177 47 57 171 46 55 171 46 55
178 47 57 188 50 60 198 53 64 206 55 66
207 55 66 203 54 65 194 52 62 185 49 59
179 48 58 179 48 57 185 49 59 195 52 63
206 55 66 215 57 69 218 58 70 214 57 69
211 56 68 201 53 64 190 51 61 183 49 59
182 48 58 186 49 60 194 52 62 203 54 65
209 56 67 210 56 67 204 54 66 194 52 62
183 49 59 174 46 56 170 45 55 174 46 56
182 48 58 193 51 62 202 54 65 206 55 66
205 55 66 198 53 64 189 50 61 181 48 58
178 47 57 180 48 58 189 50 61 200 53 64
210 56 68 217 58 70 217 58 70 211 56 68
