P3
32 32
255
33 173 169 35 181 178 36 187 183 36 187 183
35 181 177 33 172 168 31 162 159 30 155 151
29 152 149 30 155 152 31 162 158 33 170 166
34 176 172 34 177 174 33 174 170 32 166 163
30 157 154 29 150 147 28 147 144 29 150 147
30 158 155 32 168 164 34 177 173 35 182 178
35 182 178 34 177 173 32 169 165 31 161 158
30 157 154 30 158 155 31 164 161 33 173 169
34 177 173 35 184 181 36 187 183 35 185 181
34 177 174 32 168 164 30 159 155 29 153 150
29 153 150 30 158 155 32 166 163 33 174 170
34 178 174 34 177 173 33 171 167 31 162 159
29 153 150 28 148 145 28 148 145 29 153 150
31 162 159 33 172 168 34 179 175 35 182 178
34 179 175 33 173 169 32 165 161 30 159 155
30 157 153 31 160 157 32 168 164 34 177 173
35 181 177 36 186 182 36 187 183 35 182 178
33 173 169 31 163 160 30 156 153 29 153 150
30 156 152 31 162 159 33 170 167 34 177 173
34 178 175 34 175 171 32 167 164 30 158 155
29 151 147 28 147 144 29 150 147 30 157 154
32 167 163 34 176 172 35 181 177 35 181 177
34 176 172 32 168 165 31 161 157 30 156 153
30 157 154 31 163 160 33 172 168 35 181 177
35 183 179 36 187 183 35 185 181 34 178 174
32 168 165 31 160 156 30 154 151 30 154 151
30 159 156 32 167 163 33 174 171 34 179 175
34 178 174 33 173 169 31 164 160 30 155 152
29 149 146 28 148 145 29 153 150 31 161 158
33 171 167 34 178 175 35 181 177 34 179 175
33 172 168 31 164 160 30 158 154 30 155 152
30 159 155 32 166 163 34 175 172 35 183 179
35 185 181 36 186 182 35 182 178 33 173 170
31 164 160 30 156 153 29 154 150 30 156 153
31 163 159 33 171 167 34 178 174 34 180 176
34 177 173 32 170 166 31 160 157 29 152 149
28 149 145 29 150 147 30 157 154 32 166 163
34 175 171 35 180 176 35 180 177 34 175 172
32 168 164 31 160 156 30 155 152 30 156 152
31 161 158 32 170 166 34 179 175 35 185 181
35 185 181 35 184 180 34 177 174 32 168 165
31 160 156 30 154 151 30 154 151 30 159 156
32 167 164 34 175 171 34 180 176 34 180 176
33 175 171 32 166 163 30 157 154 29 151 148
29 149 146 29 154 150 31 162 158 33 171 167
34 178 174 35 181 177 34 178 175 33 172 168
31 163 160 30 156 153 29 154 151 30 157 153
31 164 160 33 173 169 35 181 177 35 185 181
35 184 180 35 180 177 33 172 169 31 163 160
30 156 153 29 153 150 30 156 153 31 163 159
33 171 168 34 179 175 35 181 178 34 179 175
33 172 168 31 163 159 30 155 151 29 151 147
29 152 149 30 158 155 32 167 163 34 175 172
35 181 177 35 181 177 34 176 172 32 168 164
30 159 156 29 154 151 29 154 150 30 159 155
32 167 164 34 176 172 35 183 179 35 184 180
35 182 178 34 176 172 32 167 164 30 159 155
29 154 150 29 153 150 30 159 155 32 167 163
34 175 172 35 181 177 35 182 178 34 177 173
32 169 165 31 160 156 29 153 150 29 152 148
30 155 152 31 163 159 33 172 168 34 179 175
35 182 178 34 179 175 33 172 169 31 163 160
30 156 153 29 153 149 30 155 151 31 161 158
33 170 167 34 179 175 35 183 179 35 182 178
34 179 175 33 171 167 31 162 159 30 155 152
29 152 149 30 155 151 31 162 158 33 171 167
34 179 175 35 182 178 35 181 177 33 174 171
32 165 162 30 157 154 29 153 150 29 154 150
31 160 156 32 168 165 34 177 173 35 182 178
35 182 178 34 177 173 32 168 165 31 160 156
29 154 150 29 152 149 30 157 153 32 165 161
33 174 170 34 180 176 35 182 178 34 179 175
33 174 171 32 166 162 30 157 154 29 152 149
29 152 149 30 157 154 32 166 162 33 175 171
35 181 177 35 182 179 34 179 175 33 171 167
31 162 159 30 156 152 29 154 150 30 157 154
32 165 161 33 173 170 35 181 177 35 183 180
35 181 177 33 174 170 31 164 161 30 156 153
29 152 149 29 153 150 31 160 156 32 168 165
34 176 172 35 181 177 34 180 176 33 174 171
32 169 166 31 160 157 29 153 150 29 150 147
29 153 150 31 160 157 32 169 166 34 178 174
35 182 178 35 181 178 34 176 172 32 167 164
31 159 156 30 155 152 30 156 152 31 161 158
33 170 166 34 178 174 35 184 180 35 184 180
34 179 175 33 170 166 31 161 157 29 154 151
29 152 149 30 156 152 31 163 160 33 172 168
34 178 174 34 180 176 34 177 173 32 169 166
31 164 161 30 156 152 29 150 147 29 150 147
30 155 152 31 164 160 33 173 169 34 180 176
35 182 179 34 179 175 33 172 169 31 164 160
30 157 154 30 155 152 30 159 155 32 166 162
34 175 171 35 182 178 35 185 181 35 183 179
34 176 172 32 166 163 30 157 154 29 153 149
29 153 150 30 159 155 32 167 163 33 175 171
34 179 175 34 178 175 33 173 169 31 164 161
30 159 156 29 152 148 28 148 145 29 151 148
30 158 155 32 167 164 34 176 173 35 181 178
35 181 177 34 176 172 32 168 165 31 161 157
30 156 153 30 157 153 31 162 159 33 171 167
34 180 176 35 185 181 36 186 182 35 181 177
33 172 168 31 162 159 30 155 152 29 153 149
30 155 152 31 162 159 33 170 167 34 177 173
34 179 175 34 176 172 32 168 165 30 159 156
30 155 151 28 149 146 28 148 145 29 153 150
31 161 158 33 171 168 34 179 175 35 182 178
34 179 175 33 172 169 31 164 161 30 158 155
30 156 153 30 159 156 32 167 163 34 176 172
35 184 180 36 187 183 35 185 181 34 178 174
32 168 165 30 159 156 29 154 151 29 154 150
30 158 155 32 166 163 33 174 170 34 178 174
34 178 174 33 172 168 31 163 160 30 155 151
29 151 148 28 147 144 29 149 146 30 156 153
32 165 162 33 174 171 34 180 176 35 181 177
34 176 172 32 168 165 31 161 157 30 156 153
30 157 154 31 162 159 33 171 168 35 180 176
36 186 182 36 187 183 35 183 179 33 174 170
31 164 161 30 157 153 29 154 150 30 156 153
31 162 159 33 170 167 34 177 173 34 179 175
34 176 172 32 168 164 30 159 155 29 151 148
28 148 145 28 147 144 29 151 148 31 160 156
32 169 166 34 177 173 35 180 177 34 178 175
33 172 168 31 164 161 30 158 155 30 156 152
30 159 155 32 166 163 34 176 172 35 184 180
36 188 184 36 186 182 34 180 176 33 170 166
31 161 158 30 155 152 30 155 151 30 159 156
32 166 163 33 174 170 34 178 175 34 178 174
33 173 169 31 164 160 30 155 151 28 148 145
28 147 144 28 148 145 30 155 151 31 164 160
33 173 169 34 179 175 34 180 176 34 175 172
32 168 164 31 160 157 30 156 152 30 156 153
31 162 158 33 170 167 34 180 176 36 186 182
36 188 184 35 184 180 34 176 172 32 166 162
30 158 155 30 155 151 30 157 153 31 163 159
33 171 167 34 177 173 34 179 176 34 176 173
32 169 165 31 159 156 29 151 148 28 147 144
28 147 144 29 151 148 30 159 155 32 168 165
34 176 172 34 180 176 34 178 174 33 172 168
31 164 160 30 157 154 30 155 151 30 158 154
32 165 161 33 174 171 35 183 179 36 187 183
36 186 182 35 180 176 33 171 167 31 162 159
30 156 153 30 155 152 31 160 156 32 167 163
33 175 171 34 179 176 34 179 175 33 174 170
32 165 162 30 156 152 28 149 146 28 147 144
28 149 145 30 154 151 31 163 160 33 172 169
34 178 174 34 179 175 33 175 171 32 167 164
31 160 156 30 155 152 30 155 151 31 160 156
32 169 165 34 178 174 35 185 181 36 187 183
35 184 180 34 176 172 32 167 163 30 159 155
30 155 152 30 157 154 31 163 160 33 171 168
34 178 174 35 181 177 34 178 174 33 171 167
31 161 158 29 153 149 28 148 145 28 149 145
29 151 148 30 159 156 32 168 165 34 176 172
34 179 176 34 178 174 33 171 168 37 173 169
39 172 168 39 170 166 37 168 164 33 165 162
33 172 169 35 181 177 36 186 182 36 186 182
34 180 176 33 171 167 31 162 159 30 156 153
30 155 152 31 160 156 32 167 164 34 175 171
35 180 176 35 181 177 34 176 172 32 167 164
30 158 154 29 150 147 28 148 145 29 151 148
30 155 152 31 164 160 33 173 169 34 179 175
34 180 176 34 175 172 39 180 176 45 184 179
47 184 180 48 185 180 46 185 181 42 184 180
35 178 174 35 183 179 36 186 182 35 183 179
34 175 172 32 166 163 30 158 155 30 155 152
30 157 153 31 163 159 33 171 168 34 178 175
35 182 178 34 180 176 33 173 169 31 163 160
30 155 151 29 150 146 29 150 147 30 155 152
31 160 157 32 169 165 34 177 173 35 180 176
34 179 175 36 178 174 44 186 182 50 190 186
53 193 188 54 195 191 52 198 193 48 197 192
41 191 187 35 184 180 35 184 180 34 179 175
33 170 166 31 161 158 30 155 152 30 155 151
30 159 155 32 167 163 34 175 171 35 181 177
35 182 178 34 178 174 32 169 166 31 160 157
29 153 149 29 150 147 29 153 150 31 160 157
32 165 162 33 174 170 34 180 176 35 181 177
34 177 173 38 178 174 46 187 182 52 192 187
55 197 192 57 202 197 56 205 200 52 205 200
44 197 193 35 184 180 35 181 177 33 174 170
32 165 161 30 157 154 29 154 150 30 155 152
31 162 158 33 170 167 34 178 174 35 182 178
35 181 177 33 175 171 32 166 162 30 157 154
29 152 149 29 152 148 30 157 154 32 165 162
33 171 167 34 178 175 35 182 178 35 180 176
33 174 170 37 174 170 45 183 178 51 190 185
55 197 192 57 204 199 56 208 203 52 207 202
44 197 193 35 182 178 34 177 173 32 169 165
31 160 156 29 154 151 29 153 150 30 157 154
32 165 162 33 174 170 35 180 177 35 182 178
34 179 175 33 171 167 31 162 159 30 155 152
29 152 149 30 155 151 31 162 158 33 171 167
34 176 172 35 182 178 35 183 179 34 179 175
33 171 167 32 164 161 41 174 170 47 183 179
52 193 188 54 201 196 53 206 201 48 203 198
40 191 187 34 179 175 33 172 168 31 163 160
30 155 152 29 152 148 29 153 150 31 160 156
32 169 165 34 177 173 35 182 178 35 181 177
34 176 172 32 167 164 30 159 156 29 154 150
29 154 150 30 159 155 32 167 163 34 176 172
35 180 176 35 184 180 35 183 179 34 176 172
32 167 164 30 159 155 34 161 158 41 173 169
45 184 180 48 193 189 47 197 193 42 193 189
35 180 177 34 175 172 32 167 163 30 158 155
29 152 149 29 151 147 30 155 151 31 163 159
33 172 168 34 179 175 35 182 178 34 179 175
33 172 168 31 163 160 30 156 153 29 154 150
30 156 153 31 163 160 33 172 169 35 180 176
35 184 180 35 185 181 35 181 177 33 173 169
31 164 160 30 156 153 29 153 150 31 158 155
36 171 167 38 180 177 37 183 179 35 180 177
34 178 174 33 171 167 31 162 158 29 154 150
29 150 146 29 151 148 30 157 154 32 166 163
34 175 171 35 180 177 35 181 177 34 176 172
32 168 165 31 160 157 30 155 152 30 155 151
31 160 156 32 168 165 34 177 174 35 184 180
36 186 182 35 185 181 34 179 175 32 170 166
31 161 157 30 155 152 30 154 151 30 159 155
32 167 163 33 174 171 34 179 176 34 180 176
33 175 171 32 166 163 30 157 154 29 150 147
28 149 145 29 152 149 31 160 157 33 170 166
34 177 174 35 181 177 34 179 175 33 172 169
31 164 161 30 157 154 30 154 151 30 157 154
31 164 161 33 173 170 35 182 178 36 186 182
36 187 183 35 183 179 34 175 172 32 166 163
30 158 155 30 155 151 30 156 153 31 163 159
33 171 167 34 177 174 35 180 176 34 178 174
33 171 167 31 161 158 29 153 149 28 148 145
29 149 146 30 155 152 31 164 160 33 173 169
34 179 175 34 180 176 34 175 172 32 168 164
31 160 157 30 155 152 30 155 152 31 160 157
32 169 165 34 178 174 35 185 181 36 187 183
36 186 183 35 181 177 33 172 168 31 163 159
30 157 153 30 156 152 31 160 156 32 167 163
33 175 171 34 180 176 34 180 176 33 175 171
32 166 163 30 157 153 29 149 146 28 147 144
29 150 147 30 158 155 32 168 164 34 175 172
34 179 175 34 178 174 33 172 168 31 164 160
30 157 154 30 154 151 30 157 153 31 164 160
33 173 170 35 182 178 36 187 183 36 186 183
35 185 181 34 177 173 32 168 164 31 160 157
30 156 153 30 157 154 31 163 160 33 171 168
34 178 174 35 181 177 34 178 175 33 171 168
31 162 158 29 153 149 28 147 144 28 148 145
29 153 150 31 162 159 33 171 167 34 177 173
34 178 175 33 175 171 32 167 164 31 160 156
30 155 151 30 154 151 31 159 156 32 168 165
34 178 174 35 185 181 36 188 184 35 185 181
35 182 178 33 173 169 31 164 161 30 158 155
30 157 153 31 160 157 32 167 164 34 175 171
35 180 177 35 181 177 34 176 172 32 167 164
30 157 154 29 150 147 28 147 144 29 150 146
30 157 154 32 166 163 33 174 170 34 178 174
34 177 173 33 171 167 31 163 160 30 156 153
29 153 150 30 156 152 31 163 159 33 172 169
35 182 178 36 187 183 36 187 183 35 182 178
